icon-themes/sifr_svg/cmd/sc_selectionmodeblock.svg

<svg viewBox="0 0 16 16" xmlns="http://www.w3.org/2000/svg"><path d="m2 3v2h8v-2zm9 2v2h1v6h-1v2h4v-2h-1v-6h1v-2zm-9 2v2h8v-2zm0 4v2h8v-2z" fill="#555753"/></svg>

<svg xmlns="http://www.w3.org/2000/svg" viewBox="0 0 16 16">
  <path
     style="fill:#555753"
     d="M 2 3 L 2 5 L 10 5 L 10 3 L 2 3 z M 11 5 L 11 7 L 12 7 L 12 13 L 11 13 L 11 15 L 15 15 L 15 13 L 14 13 L 14 7 L 15 7 L 15 5 L 11 5 z M 2 7 L 2 9 L 10 9 L 10 7 L 2 7 z M 2 11 L 2 13 L 10 13 L 10 11 L 2 11 z "
     />
</svg>
